X:1
T:English Suite III Gavotte I & II
T:BWV 808
T:J. S. Bach
%%score { ( 1 4 ) | ( 2 3 ) }
L:1/8
Q:1/4=184
M:4/4
K:Bb
V:1 treble nm="Harp"
V:4 treble 
V:2 bass 
V:3 bass 
V:1
"^Presto" g/4^f/4g3/2 ba | b2 gd a/4g/4a3/2 ^fd | g4 e2 cA | d2 BG cA d2 | %4
 B2 B/4A/4B/4A/4G g/4^f/4g3/2 ba | b2 gd a2 ^fd | g3 f edcB | abde fc d2 |{c} B4 g/4^f/4g3/2 ba | %9
 b2 gd a/4g/4a3/2 ^fd | g4 e2 cA | d2 BG cA d2 | B2 B/4A/4B/4A/4G g/4^f/4g3/2 ba | b2 gd a2 ^fd | %14
 g3 f edcB | abde fc d2 |{c} B4 e/4d/4e/4d/4e/4d/4e/4d/4 fe | f2 dB g2 eB | f4 baga | bg=ec baga | %20
 bagf gf=ef | g=e^cA gfef | gf=ed a2 a2 | %23
 b/4a/4b/4a/4b/4a/4b/4a/4 b/4a/4b/4a/4b/4a/4b/4a/4 b/4a/4b/4a/4b/4a/4b/4a/4 b/4a/4b/4a/4b/4a/4b/4a/4 | %24
 b/4a/4b/4a/4f ga bagf | =ed^cd gfef | d4 d2 fe | f2 d=B ^g2 fd | e2 cG g2 ec | d2 BG g2 dB | %30
 c2 A^F ^d2 cA | d2 BG cABG | AD=E^F GABG | ecdB cABG | A2 D2 G/4F/4G3/2 BA | B^FGD =B=FGD | %36
 cDEG cGdG | e=BcG =e_BcG | fGAc ^fcgc | a=e^fd bfgd | c'adc' bag^f | %41
 gdec c/4B/4c/4B/4c/4B/4c/4B/4 AG | G4 e/4d/4e/4d/4e/4d/4e/4d/4 fe | f2 dB g2 eB | f4 baga | %45
 bg=ec baga | bagf gf=ef | g=e^cA gfef | gf=ed a2 a2 | %49
 b/4a/4b/4a/4b/4a/4b/4a/4 b/4a/4b/4a/4b/4a/4b/4a/4 b/4a/4b/4a/4b/4a/4b/4a/4 b/4a/4b/4a/4b/4a/4b/4a/4 | %50
 b/4a/4b/4a/4f ga bagf | =ed^cd gfef | d4 d2 fe | f2 d=B ^g2 fd | e2 cG g2 ec | d2 BG g2 dB | %56
 c2 A^F ^d2 cA | d2 BG cABG | AD=E^F GABG | ecdB cABG | A2 D2 G/4F/4G3/2 BA | B^FGD =B=FGD | %62
 cDEG cGdG | e=BcG =e_BcG | fGAc ^fcgc | a=e^fd bfgd | c'adc' bag^f | %67
 gdec c/4B/4c/4B/4c/4B/4c/4B/4 AG ||[K:G] G4 D2 EC | D2 GA B2 AF | G2 D2 G2 AF | GABc dBcA | %72
 B4 D2 EC | D2 GA B2 AF | G2 D2 G2 AF | GABc dBcA | B4 d2 ec | d2 cA BGAF | G2 D2 EDGD | %79
 EDGD ED A2 | A4 A2 BG | c2 BG ecdB | cBAG ABcB | AGFG AGFE | D6 EC | D2 GA B2 AF | G2 D2 BFGD | %87
 dFGD BFGD | G2 z2 d2 ec | d2 cA BGAF | G2 D2 EDGD | EDGD ED A2 | A4 A2 BG | c2 BG ecdB | %94
 cBAG ABcB | AGFG AGFE | D6 EC | D2 GA B2 AF | G2 D2 BFGD | dFGD BFGD | %100
[K:Bb] G2 z2 g/4^f/4g3/2 ba | b2 gd a/4g/4a3/2 ^fd | g4 e2 cA | d2 BG cA d2 | %104
 B2 B/4A/4B/4A/4G g/4^f/4g3/2 ba | b2 gd a2 ^fd | g3 f edcB | abde fc d2 | %108
{c} B4 e/4d/4e/4d/4e/4d/4e/4d/4 fe | f2 dB g2 eB | f4 baga | bg=ec baga | bagf gf=ef | %113
 g=e^cA gfef | gf=ed a2 a2 | %115
 b/4a/4b/4a/4b/4a/4b/4a/4 b/4a/4b/4a/4b/4a/4b/4a/4 b/4a/4b/4a/4b/4a/4b/4a/4 b/4a/4b/4a/4b/4a/4b/4a/4 | %116
 b/4a/4b/4a/4f ga bagf | =ed^cd gfef | d4 d2 fe | f2 d=B ^g2 fd | e2 cG g2 ec | d2 BG g2 dB | %122
 c2 A^F ^d2 cA | d2 BG cABG | AD=E^F GABG | ecdB cABG | A2 D2 G/4F/4G3/2 BA | B^FGD =B=FGD | %128
 cDEG cGdG | e=BcG =e_BcG | fGAc ^fcgc | a=e^fd bfgd | c'adc' bag^f | %133
 gdec c/4B/4c/4B/4c/4B/4c/4B/4 AG | G4 z4 |] %135
V:2
 G,,2 D,2 | G,2 B,2 C2 D2 | EFED CB,A,B, | B,A,G,B, A,G,^F,^D, | G,2 D,2 B,,2 D,2 | G,2 B,2 C2 D2 | %6
 EFED CB,A,G, | F,2 G,2 ^D,2 ^E,2 | B,,C,B,,A,, G,,2 D,2 | G,2 B,2 C2 D2 | EFED CB,A,B, | %11
 B,A,G,B, A,G,^F,^D, | G,2 D,2 B,,2 D,2 | G,2 B,2 C2 D2 | EFED CB,A,G, | F,2 G,2 ^D,2 ^E,2 | %16
 B,,F,G,A, B,2 C2 | D2 B,2 E2 C2 | DCB,A, G,2 F,2 | =E,2 C,2 D,2 E,2 | F,2 G,A, B,2 G,2 | %21
 =E,2 A,,2 =B,,2 ^C,2 | D,2 D,,2 D/4^C/4D3/2 F=E | F2 DA, =E2 ^CA, | D4 G,2 A,2 | %25
 B,2 G,2 A,2 A,,2 | D,,D,E,F, G,/4F,/4G,3/2 G,/4F,/4G,3/2 | %27
 F,/4G,/4A,/4G,/4A,/4G,/4A,/4G,/4 A,/4G,/4A,/4G,/4A,/4G,/4A,/4G,/4 A,/4G,/4A,/4G,/4A,/4G,/4A,/4G,/4 A,/4G,/4A,/4G,/4A,/4G,/4A,/4G,/4 | %28
 A,/4G,/4A,/4G,/4A,/4G,/4A,/4G,/4 A,/4G,/4A,/4G,/4A,/4G,/4A,/4G,/4 G,/4F,/4G,3/2 G,/4F,/4G,3/2 | %29
 G,/4F,/4G,3/2- G,2 G,/4F,/4G,3/2 G,/4F,/4G,3/2 | G,/4F,/4G,3/2- G,2 G,G,G,G, | %31
 G,G,G,G, G,^F, G,2 | D,2 C,2 B,,2 D,2 | ^F,,2 D,2 G,,2 D,2 | D,,2 D,C, B,,2 A,,2 | %35
 G,,2 z2 F,,2 z2 | E,,2 G,F, E,2 D,2 | C,2 z2 B,,2 z2 | A,,2 CB, A,2 G,2 | ^F,2 z2 =E,2 z2 | %40
 D,2 ^F,2 G,2 A,2 | B,2 C2 D2 D,2 | G,,4 B,2 C2 | D2 B,2 E2 C2 | DCB,A, G,2 F,2 | %45
 =E,2 C,2 D,2 E,2 | F,2 G,A, B,2 G,2 | =E,2 A,,2 =B,,2 ^C,2 | D,2 D,,2 D/4^C/4D3/2 F=E | %49
 F2 DA, =E2 ^CA, | D4 G,2 A,2 | B,2 G,2 A,2 A,,2 | D,,D,E,F, G,/4F,/4G,3/2 G,/4F,/4G,3/2 | %53
 F,/4G,/4A,/4G,/4A,/4G,/4A,/4G,/4 A,/4G,/4A,/4G,/4A,/4G,/4A,/4G,/4 A,/4G,/4A,/4G,/4A,/4G,/4A,/4G,/4 A,/4G,/4A,/4G,/4A,/4G,/4A,/4G,/4 | %54
 A,/4G,/4A,/4G,/4A,/4G,/4A,/4G,/4 A,/4G,/4A,/4G,/4A,/4G,/4A,/4G,/4 G,/4F,/4G,3/2 G,/4F,/4G,3/2 | %55
 G,/4F,/4G,3/2- G,2 G,/4F,/4G,3/2 G,/4F,/4G,3/2 | G,/4F,/4G,3/2- G,2 G,G,G,G, | %57
 G,G,G,G, G,^F, G,2 | D,2 C,2 B,,2 D,2 | ^F,,2 D,2 G,,2 D,2 | D,,2 D,C, B,,2 A,,2 | %61
 G,,2 z2 F,,2 z2 | E,,2 G,F, E,2 D,2 | C,2 z2 B,,2 z2 | A,,2 CB, A,2 G,2 | ^F,2 z2 =E,2 z2 | %66
 D,2 ^F,2 G,2 A,2 | B,2 C2 D2 D,2 ||[K:G] G,,4 B,2 A,2 | B,2 C2 D2 C2 | B,2 C2 B,2 A,2 | %71
 B,2 C2 B,2 A,2 | G,4 B,2 A,2 | B,2 C2 D2 C2 | B,2 C2 B,2 A,2 | B,2 C2 B,2 A,2 | G,4 B,2 A,2 | %77
 B,2 E2 D2 C2 | C/4B,/4C/4B,/4C/4B,/4C/4B,/4 A,B, C2 B,2 | C2 B,2 C2 CA, | C4 C2 D2 | %81
 E2 D2 C2 B,2 | A,2 B,2 C2 D2 | C2 E2 D2 C2 | B,2 C2 B,2 A,2 | B,2 C2 D2 C2 | B,2 z2 D2 z2 | %87
 B,2 z2 D2 z2 | B,2 z2 B,2 A,2 | B,2 E2 D2 C2 | C/4B,/4C/4B,/4C/4B,/4C/4B,/4 A,B, C2 B,2 | %91
 C2 B,2 C2 CA, | C4 C2 D2 | E2 D2 C2 B,2 | A,2 B,2 C2 D2 | C2 E2 D2 C2 | B,2 C2 B,2 A,2 | %97
 B,2 C2 D2 C2 | B,2 z2 D2 z2 | B,2 z2 D2 z2 |[K:Bb] =B,2 z2 G,,2 D,2 | G,2 B,2 C2 D2 | %102
 EFED CB,A,B, | B,A,G,B, A,G,^F,^D, | G,2 D,2 B,,2 D,2 | G,2 B,2 C2 D2 | EFED CB,A,G, | %107
 F,2 G,2 ^D,2 ^E,2 | B,,F,G,A, B,2 C2 | D2 B,2 E2 C2 | DCB,A, G,2 F,2 | =E,2 C,2 D,2 E,2 | %112
 F,2 G,A, B,2 G,2 | =E,2 A,,2 =B,,2 ^C,2 | D,2 D,,2 D/4^C/4D3/2 F=E | F2 DA, =E2 ^CA, | %116
 D4 G,2 A,2 | B,2 G,2 A,2 A,,2 | D,,D,E,F, G,/4F,/4G,3/2 G,/4F,/4G,3/2 | %119
 F,/4G,/4A,/4G,/4A,/4G,/4A,/4G,/4 A,/4G,/4A,/4G,/4A,/4G,/4A,/4G,/4 A,/4G,/4A,/4G,/4A,/4G,/4A,/4G,/4 A,/4G,/4A,/4G,/4A,/4G,/4A,/4G,/4 | %120
 A,/4G,/4A,/4G,/4A,/4G,/4A,/4G,/4 A,/4G,/4A,/4G,/4A,/4G,/4A,/4G,/4 G,/4F,/4G,3/2 G,/4F,/4G,3/2 | %121
 G,/4F,/4G,3/2- G,2 G,/4F,/4G,3/2 G,/4F,/4G,3/2 | G,/4F,/4G,3/2- G,2 G,G,G,G, | %123
 G,G,G,G, G,^F, G,2 | D,2 C,2 B,,2 D,2 | ^F,,2 D,2 G,,2 D,2 | D,,2 D,C, B,,2 A,,2 | %127
 G,,2 z2 F,,2 z2 | E,,2 G,F, E,2 D,2 | C,2 z2 B,,2 z2 | A,,2 CB, A,2 G,2 | ^F,2 z2 =E,2 z2 | %132
 D,2 ^F,2 G,2 A,2 | B,2 C2 D2 D,2 | G,,4 z4 |] %135
V:3
 x4 | x8 | x8 | x8 | x8 | x8 | x8 | x8 | x8 | x8 | x8 | x8 | x8 | x8 | x8 | x8 | x8 | x8 | x8 | %19
 x8 | x8 | x8 | x8 | x8 | x8 | x8 | x8 | x8 | x8 | x8 | x8 | x8 | x8 | x8 | x8 | x8 | x8 | x8 | %38
 x8 | x8 | x8 | x8 | x8 | x8 | x8 | x8 | x8 | x8 | x8 | x8 | x8 | x8 | x8 | x8 | x8 | x8 | x8 | %57
 x8 | x8 | x8 | x8 | x8 | x8 | x8 | x8 | x8 | x8 | x8 ||[K:G] z4 G,4- | G,8- | G,8- | G,8- | %72
 G,4 G,4- | G,8- | G,8- | G,8- | G,4 G,4- | G,8- | G,8- | G,8- | G,8- | G,8- | G,8- | G,8- | G,8- | %85
 G,8- | G,8- | G,8- | G,2 z2 G,4- | G,8- | G,8- | G,8- | G,8- | G,8- | G,8- | G,8- | G,8- | G,8- | %98
 G,8- | G,8- |[K:Bb] G,2 x6 | x8 | x8 | x8 | x8 | x8 | x8 | x8 | x8 | x8 | x8 | x8 | x8 | x8 | x8 | %115
 x8 | x8 | x8 | x8 | x8 | x8 | x8 | x8 | x8 | x8 | x8 | x8 | x8 | x8 | x8 | x8 | x8 | x8 | x8 | %134
 x8 |] %135
V:4
 x4 | x8 | x8 | x8 | x8 | x8 | x8 | x8 | x8 | x8 | x8 | x8 | x8 | x8 | x8 | x8 | x8 | x8 | x8 | %19
 x8 | x8 | x8 | x8 | x8 | x8 | x8 | x8 | x8 | x8 | x8 | x8 | x8 | x8 | x8 | x8 | x8 | x8 | x8 | %38
 x8 | x8 | x8 | x8 | x8 | x8 | x8 | x8 | x8 | x8 | x8 | x8 | x8 | x8 | x8 | x8 | x8 | x8 | x8 | %57
 x8 | x8 | x8 | x8 | x8 | x8 | x8 | x8 | x8 | x8 | x8 ||[K:G] x8 | x8 | x8 | x8 | x8 | x8 | x8 | %75
 x8 | x8 | x8 | x8 | x8 | F4 z4 | x8 | x8 | x8 | x8 | x8 | x8 | x8 | D2 z2 z4 | x8 | x8 | x8 | %92
 F4 z4 | x8 | x8 | x8 | x8 | x8 | x8 | x8 |[K:Bb] D2 z2 z4 | x8 | x8 | x8 | x8 | x8 | x8 | x8 | %108
 x8 | x8 | x8 | x8 | x8 | x8 | x8 | x8 | x8 | x8 | x8 | x8 | x8 | x8 | x8 | x8 | x8 | x8 | x8 | %127
 x8 | x8 | x8 | x8 | x8 | x8 | x8 | x8 |] %135

